X: 675
T: Shaliang diao
%%abc-version 2.0
%%abcx-abcm2ps-target-version 5.9.1 (29 Sep 2008)
%%abc-creator hum2abc beta
%%abcx-conversion-date 2013/10/02 07:52:30
%%abc-edited-by Helmut Schaffrath
%%humdrum-veritas 440281086
%%humdrum-veritas-data 1024839885
%%continueall 1
%%barnumbers 0
L: 1/8
M: 2/4
K: A
B> cB2 [I:setbarnb 1]| 
A B c e | 
B2F2 | 
c e f a | 
e c e B/ A/ | 
F4 | 
B> c A B | 
cc2c | 
CC2E | 
F F B B | 
A F A C | 
B,4 |]  



